Cloud/dashboard/static/tracks/catalunya.svg

<?xml version="1.0" encoding="UTF-8"?>
<!-- Uploaded to: SVG Find, www.svgfind.com, Generator: SVG Find Mixer Tools -->
<svg fill="#000000" width="800px" height="800px" version="1.1" viewBox="144 144 512 512" xmlns="http://www.w3.org/2000/svg">
 <path d="m600.38 233.29-18.207-15.477c-4.0078-3.4062-10.066-4.0195-14.695-1.4727l-7.2617 4.0156c-1.6992 0.94141-3.9336 0.5-5.1562-1.0039l-18.617-22.949c-3.8789-4.7812-9.6328-7.5234-15.793-7.5234-3.5625 0-7.082 0.94531-10.172 2.7344l-41.305 23.906c-10.863 6.2852-16.484 18.777-13.988 31.082l0.96094 4.7344c2.3984 11.816 13.164 20.25 25.422 19.465 4.6172-0.29688 9.1406-1.7305 13.078-4.1445l8.3906-5.1406c2.6953-1.6484 6.0977-1.9688 9.0547-0.83984 8.1328 3.0977 23.43 9.0312 34.559 13.934 0.53906 0.23828 0.80078 0.65625 0.77734 1.25-0.027344 0.60547-0.32813 1.0117-0.89844 1.207l-188.04 64.516c-15.898 5.457-24.883 21.883-20.898 38.211l18.18 74.48c1.375 5.6328 4.3789 10.66 8.6914 14.535l9.7656 8.793c2.5234 2.2695 4.0078 5.3906 4.1875 8.7773 0.17969 3.3906-0.97656 6.6445-3.2461 9.1641l-18.332 20.348c-16.426 18.227-38.484 30.934-62.113 35.781-11.344 2.3281-21.773 3.2812-31.77 2.7422-2.4492-0.13281-4.4922-1.5664-5.4727-3.8477-1.0039-2.332-0.625-4.8711 1.0078-6.7969l48.441-56.98c15.535-18.277 8.375-44.457-3.3828-54.453-4.6758-3.9766-10.723-6.0781-17.492-6.0781-9.1992 0-18.461 3.9023-23.59 9.9336l-56.93 66.98c-22.25 26.172-28.633 75.195-3.1953 96.82 8.6797 7.3789 18.668 11.117 29.695 11.117 13.129 0 27.965-5.168 46.68-16.273 6.4531-3.832 14.906-3.3594 20.832 1.1641l10.922 8.3398c3.6367 2.7734 7.9727 4.2422 12.539 4.2422 6.082 0 11.824-2.6562 15.758-7.2852l171.41-201.64 4.2344 3.5-28.883 34.957-7.7109 9.3359 16.039-5.5938-0.30469-5.1602 28.297-34.25-8.25-6.8164 91.246-107.34c13.938-16.395 11.938-41.07-4.4609-55.004zm-3.5898 48.16-266.08 313c-3.3594 3.9609-9.6758 4.6602-13.828 1.4844l-10.922-8.3398c-9.2109-7.0312-22.617-7.793-32.637-1.8477-17.02 10.094-30.137 14.793-41.289 14.793-8.5664 0-16.039-2.8125-22.852-8.6016-21.973-18.68-12.625-61.902 4.3984-81.934l56.934-66.969c3.1094-3.6562 9.5-6.2109 15.539-6.2109 2.9453 0 7.1836 0.61719 10.645 3.5586 8.2773 7.0391 13.363 26.402 2.1797 39.562l-48.441 56.98c-4.2305 4.9805-5.2539 11.805-2.6641 17.82 2.5625 5.9609 8.1641 9.8711 14.617 10.219 10.867 0.58594 22.223-0.4375 34.453-2.9414 25.82-5.293 49.914-19.164 67.84-39.055l18.332-20.348c4.1602-4.6211 6.2734-10.586 5.9492-16.793-0.32812-6.207-3.0508-11.918-7.6719-16.078l-9.7656-8.793c-2.7227-2.4531-4.625-5.6328-5.4922-9.1914l-18.18-74.48c-2.6836-10.984 3.3633-22.039 14.062-25.711l188.04-64.512c4.668-1.6016 7.8164-5.8203 8.0234-10.754 0.21094-4.918-2.5664-9.3828-7.0703-11.367-10.777-4.75-25.012-10.312-35.059-14.141-5.9805-2.2773-12.887-1.6367-18.336 1.7031l-8.3906 5.1406c-2.4805 1.5195-5.3281 2.4219-8.2344 2.6094-6.9258 0.52734-13.035-4.3281-14.395-11.02l-0.96094-4.7344c-1.5938-7.8555 1.9922-15.824 8.9258-19.836l41.305-23.906c4.0508-2.3555 9.5312-1.3203 12.469 2.2969l18.617 22.949c4.3477 5.3633 12.41 6.9453 18.465 3.5977l7.2617-4.0156c0.86328-0.47656 2-0.35547 2.75 0.27344l18.203 15.477c11.961 10.16 13.422 28.152 3.2578 40.109z"/>
</svg>

<?xml version="1.0" encoding="utf-8"?>
<svg fill="#000000" width="800px" height="800px" version="1.1" viewBox="144 144 512 512" xmlns="http://www.w3.org/2000/svg">
  <path d="M 600.38 233.29 L 582.173 217.813 C 578.165 214.407 572.107 213.793 567.478 216.34 L 560.216 220.356 C 558.517 221.297 556.283 220.856 555.06 219.352 L 536.443 196.403 C 532.564 191.622 526.81 188.88 520.65 188.88 C 517.088 188.88 513.568 189.825 510.478 191.614 L 469.173 215.52 C 458.31 221.805 452.689 234.297 455.185 246.602 L 456.146 251.336 C 458.544 263.152 469.31 271.586 481.568 270.801 C 486.185 270.505 490.709 269.071 494.646 266.657 L 503.037 261.516 C 505.732 259.868 509.134 259.547 512.091 260.676 C 520.224 263.774 535.521 269.708 546.65 274.61 C 547.189 274.849 547.451 275.267 547.428 275.86 C 547.4 276.466 547.099 276.872 546.529 277.067 L 358.489 341.583 C 342.591 347.04 333.606 363.466 337.591 379.794 L 355.771 454.274 C 357.146 459.907 360.15 464.934 364.463 468.809 L 374.228 477.602 C 376.752 479.872 378.236 482.993 378.416 486.38 C 378.595 489.77 377.439 493.024 375.17 495.544 L 356.838 515.892 C 340.412 534.119 318.354 546.826 294.725 551.673 C 283.381 554.001 272.952 554.954 262.955 554.415 C 260.505 554.282 258.462 552.849 257.482 550.567 C 256.478 548.235 256.857 545.696 258.49 543.77 L 306.931 486.79 C 322.466 468.513 315.306 442.333 303.548 432.337 C 298.872 428.361 292.825 426.259 286.056 426.259 C 276.857 426.259 267.595 430.162 262.466 436.193 L 205.536 503.173 C 183.286 529.345 176.903 578.368 202.341 599.993 C 211.02 607.372 221.009 611.11 232.036 611.11 C 245.165 611.11 260.001 605.942 278.716 594.837 C 285.169 591.005 293.622 591.478 299.548 596.001 L 310.47 604.341 C 314.106 607.114 318.442 608.583 323.009 608.583 C 329.091 608.583 334.833 605.927 338.767 601.298 L 604.844 288.29 C 618.782 271.895 616.782 247.22 600.384 233.286 L 600.38 233.29 Z M 596.79 281.45 L 330.71 594.45 C 327.351 598.411 321.034 599.11 316.882 595.934 L 305.96 587.595 C 296.749 580.563 283.343 579.802 273.323 585.747 C 256.303 595.841 243.186 600.54 232.034 600.54 C 223.468 600.54 215.995 597.727 209.182 591.938 C 187.209 573.258 196.557 530.036 213.581 510.004 L 270.515 443.035 C 273.624 439.379 280.015 436.824 286.054 436.824 C 288.999 436.824 293.237 437.442 296.699 440.383 C 304.976 447.422 310.062 466.785 298.878 479.945 L 250.437 536.925 C 246.207 541.905 245.183 548.73 247.773 554.745 C 250.336 560.706 255.937 564.616 262.39 564.964 C 273.257 565.55 284.613 564.526 296.843 562.023 C 322.663 556.729 346.757 542.859 364.683 522.968 L 383.015 502.62 C 387.175 497.998 389.289 492.034 388.964 485.827 C 388.636 479.62 385.914 473.909 381.293 469.749 L 371.527 460.956 C 368.804 458.502 366.902 455.323 366.035 451.764 L 347.855 377.284 C 345.171 366.3 351.218 355.245 361.917 351.573 L 549.957 287.061 C 554.625 285.46 557.773 281.241 557.98 276.307 C 558.191 271.389 555.414 266.924 550.91 264.94 C 540.133 260.19 525.898 254.628 515.851 250.799 C 509.87 248.522 502.964 249.162 497.515 252.502 L 489.124 257.643 C 486.644 259.162 483.796 260.065 480.89 260.252 C 473.964 260.78 467.855 255.924 466.495 249.232 L 465.534 244.498 C 463.94 236.642 467.526 228.674 474.46 224.662 L 515.765 200.756 C 519.815 198.4 525.296 199.436 528.234 203.053 L 546.851 226.002 C 551.198 231.365 559.261 232.947 565.316 229.599 L 572.577 225.584 C 573.441 225.107 574.577 225.228 575.327 225.857 L 593.53 241.334 C 605.491 251.494 606.952 269.486 596.788 281.443 L 596.79 281.45 Z"/>
</svg>
